X:7
T:Highland Laddie
C:Traditional
M:2/4
L:1/8
Q:1/2=56
K:D
e6
|: {/g}A3/2B/2 | {/Gdc}d3e {/g}f2a2 | g3/2f/2{/g}e3/2d/2 {/g}f4 | {/gfg}f2e2 {/gef}e2{/g}d3/2e/2 | {/gfg}f2e2 {/gef}e2d/2{/e}B3/2 |!
{/Gdc}d3e {/g}f2a2 | g3/2f/2{/g}e3/2d/2 {/gfg}f2{/g}e3/2f/2 | {/Gdc}d2{/e}B2 {/gBd}B2{/g}A3/2B/2 | {/Gdc}d2{/e}B2 {/gBd}B2 :|!
|: {/gf}g2 | {/ag}a2g/2f3/2 {/gf}g2f/2e3/2 | {/gfg}f3/2e/2{/g}d3/2e/2 {/g}f4 | {/gfg}f2e2 {/gef}e2{/g}d3/2e/2 | {/gfg}f2e2 {/gef}e2{/gf}g2 |!
{/ag}a2g/2f3/2 {/gf}g2f/2e3/2 | {/gfg}f3/2e/2{/g}d3/2e/2 {/gfg}f2e3/2f/2 | {/Gdc}d2{/e}B2 {/gBd}B2{/g}A3/2B/2 | {/Gdc}d2{/e}B2 {/gBd}B2 :|

